FINK
CUT[DU WIRST MIRS JA NIT UEBEL NEHMA]
REG[Europa, Mitteleuropa, Deutschland]
KEY[F0104  16  F 3/4]
MEL[1_3_4_  5__.+1_7_6_  5_1_3_1_
    6_.5  5_-7_2_-7_6_.5  5_1_3_1_
    3_.4  5__+3__+2_.+1  +1_1_3_1_
    6_.5  5_-7_2_-7_6_.5  1__0_
    1_6_.5  5_-7_2_-7_6_.5  5_1_3_
    1_6_.5  5_-7_2_-7_6_.5  5_+1_5__
    3_.4  5__+3__+2_.+1  +1_1_3_1_
    6_.5  5_-7_2_-7_6_.5  1__0_ //] >>
FCT[Liebes - Lied, Trennung; Jodler]
